polaris-icons/icons/new-icons/ArrowUpMinor.svg

<svg width="20" height="20" viewBox="0 0 20 20" fill="none" xmlns="http://www.w3.org/2000/svg">
<path fill-rule="evenodd" clip-rule="evenodd" d="M9.99988 16.5C9.58566 16.5 9.24988 16.1642 9.24988 15.75L9.24988 6.06039L6.53023 8.7803C6.23736 9.07321 5.76248 9.07324 5.46957 8.78036C5.17667 8.48748 5.17664 8.01261 5.46952 7.7197L9.46952 3.7193C9.61017 3.57863 9.80095 3.4996 9.99988 3.4996C10.1988 3.4996 10.3896 3.57863 10.5302 3.7193L14.5302 7.7197C14.8231 8.0126 14.8231 8.48748 14.5302 8.78036C14.2373 9.07324 13.7624 9.07321 13.4695 8.7803L10.7499 6.06039L10.7499 15.75C10.7499 16.1642 10.4141 16.5 9.99988 16.5Z" fill="#4A4A4A"/>
</svg>

<svg viewBox="0 0 20 20" xmlns="http://www.w3.org/2000/svg"><path fill-rule="evenodd" d="M10 16.5a.75.75 0 0 1-.75-.75v-9.69l-2.72 2.72a.75.75 0 1 1-1.06-1.06l4-4a.75.75 0 0 1 1.06 0l4 4a.75.75 0 1 1-1.06 1.06l-2.72-2.72v9.69a.75.75 0 0 1-.75.75Z" fill="#5C5F62"/></svg>
